X:1
T:Title
%%score { 1 | 2 }
L:1/8
Q:1/4=100
M:2/2
K:Eb
V:1 treble nm="Grand Piano"
V:2 bass 
V:1
 B4 A2 G2 | [DG]3 [DF] E4 | [Ec]4 [DB]2 [DA]2 | [DA]3 [EG] [EG]4 | [Ge]4 [EG]2 [E=A]2 | [DB]8 | %6
w: Warren~W.~Bentley * *||||||
 [Ad]4 [Ac]2 [AB]2 | [Ge]3 [GB] [GB]4 | [Fc]4 [DB]2 [DA]2 | [DA]3 G G4 | F4 G2 A2 | %11
w: |||||
 [_Gc]2 [=GB]2 [Ge]4 | [EG]4 [DG]3 [DF] | E8 |] %14
w: |||
V:2
 [E,G,E]4 [E,CE]2 [E,B,E]2 | [B,,A,]3 [B,,A,] [C,G,]4 | [A,,A,]4 [B,,F,]2 [B,,B,]2 | %3
 [B,,B,]3 [E,B,] [E,B,]4 | [C,C]4 [C,C]2 [F,C]2 | [B,,B,]8 | [B,,B,]4 [B,,B,]2 [B,,B,]2 | %7
 [E,B,]3 [E,B,] [E,B,]4 | [A,,A,]4 [B,,F,]2 [B,,B,]2 | [B,,B,]3 [E,B,E] [E,B,E]4 | %10
 [A,B,D]4 [G,B,E]2 [F,B,D]2 | [E,A,]2 [E,B,]2 [E,B,]4 | [B,,B,]4 [B,,B,]3 [B,,A,] | [E,G,]8 |] %14

